packages/kaspersky-hexa-ui-icons/src/iconsSVGs/28x20/FlagUy.svg

<svg width="28" height="20" viewBox="0 0 28 20" fill="none" xmlns="http://www.w3.org/2000/svg">
<g clip-path="url(#clip0_5138_2008)">
<path d="M0 2C0 0.895431 0.895431 0 2 0H26C27.1046 0 28 0.895431 28 2V18C28 19.1046 27.1046 20 26 20H2C0.895431 20 0 19.1046 0 18V2Z" fill="white"/>
<mask id="mask0_5138_2008" style="mask-type:luminance" maskUnits="userSpaceOnUse" x="0" y="0" width="28" height="20">
<rect width="28" height="20" rx="2" fill="white"/>
</mask>
<g mask="url(#mask0_5138_2008)">
<path d="M26 19.5V20H2V19.5H26ZM27.5 18V2C27.5 1.17157 26.8284 0.5 26 0.5H2C1.17157 0.5 0.5 1.17157 0.5 2V18C0.5 18.8284 1.17157 19.5 2 19.5V20C0.895431 20 0 19.1046 0 18V2C2.57702e-07 0.895431 0.895431 0 2 0H26C27.1046 0 28 0.895431 28 2V18C28 19.1046 27.1046 20 26 20V19.5C26.8284 19.5 27.5 18.8284 27.5 18Z" fill="#F5F5F5"/>
<path fill-rule="evenodd" clip-rule="evenodd" d="M28 2.66666H13.3333V5.33332H28V2.66666ZM13.3333 7.99999V10.6667H28V7.99999H13.3333ZM13.3333 13.3333L0 13.3333V16H28V13.3333H13.3333ZM0 20V18.6667H28V20H0Z" fill="#0E4DC5"/>
<path fill-rule="evenodd" clip-rule="evenodd" d="M6.66666 9.3213L5.77657 10.6499L5.55111 9.06668L4.1727 9.87756L4.65652 8.35327L3.06278 8.48577L4.16006 7.32235L2.66666 6.75024L4.16006 6.17812L3.06278 5.0147L4.65652 5.14721L4.1727 3.62291L5.55111 4.43379L5.77657 2.85052L6.66666 4.17917L7.55674 2.85052L7.7822 4.43379L9.16062 3.62291L8.67679 5.14721L10.2705 5.0147L9.17326 6.17812L10.6667 6.75024L9.17326 7.32235L10.2705 8.48577L8.67679 8.35327L9.16062 9.87756L7.7822 9.06668L7.55674 10.6499L6.66666 9.3213ZM9.21211 6.75024C9.21211 8.15605 8.07247 9.29569 6.66666 9.29569C5.26084 9.29569 4.1212 8.15605 4.1212 6.75024C4.1212 5.34442 5.26084 4.20478 6.66666 4.20478C8.07247 4.20478 9.21211 5.34442 9.21211 6.75024ZM6.66666 8.66666C7.77123 8.66666 8.66666 7.77123 8.66666 6.66666C8.66666 5.56209 7.77123 4.66666 6.66666 4.66666C5.56209 4.66666 4.66666 5.56209 4.66666 6.66666C4.66666 7.77123 5.56209 8.66666 6.66666 8.66666Z" fill="#FED443"/>
</g>
</g>
<defs>
<clipPath id="clip0_5138_2008">
<rect width="28" height="20" fill="white"/>
</clipPath>
</defs>
</svg>

<svg xmlns="http://www.w3.org/2000/svg" width="28" height="20" fill="none" viewBox="0 0 28 20"><g clip-path="url(#a)"><path fill="#fff" d="M0 2C0 .8954.8954 0 2 0h24c1.1046 0 2 .8954 2 2v16c0 1.1046-.8954 2-2 2H2c-1.1046 0-2-.8954-2-2z"/><mask id="b" width="28" height="20" x="0" y="0" maskUnits="userSpaceOnUse" style="mask-type:luminance"><rect width="28" height="20" fill="#fff" rx="2"/></mask><g mask="url(#b)"><path fill="#f5f5f5" d="M26 19.5v.5H2v-.5zm1.5-1.5V2c0-.8284-.6716-1.5-1.5-1.5H2C1.1716.5.5 1.1716.5 2v16c0 .8284.6716 1.5 1.5 1.5v.5c-1.1046 0-2-.8954-2-2V2C0 .8954.8954 0 2 0h24c1.1046 0 2 .8954 2 2v16c0 1.1046-.8954 2-2 2v-.5c.8284 0 1.5-.6716 1.5-1.5"/><path fill="#0e4dc5" fill-rule="evenodd" d="M28 2.6667H13.3333v2.6666H28zM13.3333 8v2.6667H28V8zm0 5.3333H0V16h28v-2.6667zM0 20v-1.3333h28V20z" clip-rule="evenodd"/><path fill="#fed443" fill-rule="evenodd" d="m6.6667 9.3213-.8901 1.3286-.2255-1.5832-1.3784.8109.4838-1.5243-1.5937.1325L4.16 7.3224l-1.4934-.5722 1.4934-.572-1.0973-1.1635 1.5937.1325-.4838-1.5243 1.3784.8109.2255-1.5833.89 1.3287.8901-1.3287.2255 1.5833 1.3784-.8109-.4838 1.5243 1.5937-.1325-1.0972 1.1634 1.4934.5721-1.4934.5721 1.0972 1.1635-1.5937-.1325.4838 1.5243-1.3784-.811-.2255 1.5833zm2.5454-2.571c0 1.4058-1.1396 2.5454-2.5454 2.5454S4.1212 8.156 4.1212 6.7502s1.1396-2.5454 2.5455-2.5454c1.4058 0 2.5454 1.1396 2.5454 2.5454M6.6667 8.6666c1.1045 0 2-.8955 2-2s-.8955-2-2-2-2 .8954-2 2 .8954 2 2 2" clip-rule="evenodd"/></g></g><defs><clipPath id="a"><path fill="#fff" d="M0 0h28v20H0z"/></clipPath></defs></svg>
